X:302
T:Her Mantle So Green ( in D )
M:3/4
L:1/4
Q:1/4=90
K:D
A/c/|"Bm"B3/2 c/ B|"Fm"A F A|"D"d/c/ d3/2 e/|"Bm"f2 d/e/|f b a/b/| \
"Fm"f e f/e/|"G"d B A/F/|"A"A2 d/c/|"Bm"B3/2 c/ B|
"Fm"A F A|"D"d/c/ d3/2 e/|"Bm"f2 d/e/|f b a/b/|"Fm"f e f/e/| \
"G"d B "A"A|"Bm"B2:|b3/2 c'/ b|"Fm"a f a|
"Bm"b3/2 a/ f|"Fm"a2 f/a/|"Bm"b3/2 a/ b|"Fm"f e f/e/|"G"d B A/F/| \
"A"A2 d/c/|"Bm"B3/2 c/ B|"Fm"A F A|"D"d/c/ d3/2 e/|
"Fm"f2 d/f/|"Bm"f b a/b/|"Fm"f e f/e/|"G"d B "A"A|"Bm"B3:|
